packages/assets/static/images/icons/bold/neurodivergence--bold.svg

<svg width="24" height="24" viewBox="0 0 24 24" xmlns="http://www.w3.org/2000/svg">
<path d="M18.4209 16.0738C20.2781 14.5157 21.374 12.1832 21.374 9.74854C21.374 5.19979 17.6728 1.49854 13.124 1.49854C8.57528 1.49854 4.97716 5.09854 4.87685 9.56104L2.77028 13.6101C2.76185 13.627 2.75341 13.6429 2.74685 13.6607C2.43466 14.3882 2.74497 15.2367 3.45278 15.592C3.46122 15.5957 3.46872 15.6004 3.47716 15.6042L5.62497 16.5876V19.4995C5.62497 20.3263 6.2981 20.9995 7.12497 20.9995H11.625C12.0393 20.9995 12.375 20.6638 12.375 20.2495C12.375 19.8351 12.0393 19.4995 11.625 19.4995H7.12497V16.1067C7.12497 15.8132 6.95435 15.547 6.68716 15.4251L4.12778 14.2532L6.2906 10.0963C6.34591 9.98947 6.37497 9.87041 6.37497 9.75041C6.37497 6.02853 9.4031 3.00041 13.125 3.00041C16.8468 3.00041 19.875 6.02853 19.875 9.75041C19.875 11.8635 18.8653 13.882 17.175 15.1504C16.9593 15.3117 16.8478 15.576 16.8806 15.8432L17.6306 21.8432C17.6784 22.2229 18.0009 22.5004 18.374 22.5004C18.405 22.5004 18.4368 22.4985 18.4678 22.4948C18.8784 22.4432 19.17 22.0682 19.1193 21.6576L18.4218 16.0757L18.4209 16.0738Z"/>
<path d="M14.9165 6.4701C14.1375 6.4701 13.469 6.89478 13.1906 7.57541C12.9131 6.89478 12.2447 6.4701 11.4647 6.4701C10.4353 6.4701 9.59997 7.30447 9.59997 8.33478C9.59997 10.6138 13.1906 12.5479 13.1906 12.5479C13.1906 12.5479 16.7812 10.6148 16.7812 8.33478C16.7812 7.30541 15.9468 6.4701 14.9165 6.4701Z"/>
</svg>

<svg viewBox="0 0 24 24" xmlns="http://www.w3.org/2000/svg" aria-hidden="true" fill="currentColor"><path d="M18.42 16.074a8.3 8.3 0 0 0 2.954-6.325c0-4.55-3.701-8.25-8.25-8.25A8.22 8.22 0 0 0 4.877 9.56l-2.107 4.05q-.013.023-.023.05a1.5 1.5 0 0 0 .706 1.931l.024.012 2.148.984V19.5c0 .826.673 1.5 1.5 1.5h4.5a.75.75 0 1 0 0-1.5h-4.5v-3.393c0-.294-.17-.56-.438-.682l-2.56-1.172 2.164-4.157a.75.75 0 0 0 .084-.346A6.76 6.76 0 0 1 13.125 3a6.76 6.76 0 0 1 6.75 6.75 6.78 6.78 0 0 1-2.7 5.4.75.75 0 0 0-.294.693l.75 6a.75.75 0 0 0 1.488-.185l-.697-5.582z"/><path d="M14.917 6.47c-.78 0-1.448.425-1.726 1.105-.278-.68-.946-1.105-1.726-1.105-1.03 0-1.865.834-1.865 1.865 0 2.279 3.59 4.213 3.59 4.213s3.591-1.933 3.591-4.213c0-1.03-.834-1.865-1.864-1.865"/></svg>
